X:1
T:Title
%%score 1 { ( 2 3 ) | ( 4 5 ) }
L:1/8
Q:1/4=120
M:4/4
K:A
V:1 treble nm="Voice"
V:2 treble nm="Piano"
V:3 treble 
V:4 bass 
V:5 bass 
V:1
 x8 | x8 | x8 | z8 | z8 | z16 | z4 z C FG | A4- AG!ped! FC | D4 z D GA | B4- BA G>D | %10
 F2 E2 z (E!<(! ^A)!<)!B | c4- cB!>(! ^A!>)!F | =G4 z G Bc | d4- dc B>A | A2 G2 z!f! G!ped! ^B^d | %15
 (f4 =B2) cd | c4- c!p!F GA | G2 G2 G3 G | MC8 | C2 z C C3 C |!ped! c8- | c2 z c c3 c | %22
!f!!ped! (e8 | e) |!f! (d8 | F2) z F !^!G3 F | !^!A4 z2 z ^A | B4 z2 z .^B |!f! c8- | c4- c2 z .c | %30
 f4 z4 | z8 | z8 | z16 | z4 z2 C2 |!ped! ^A3 B ^dc BA | ^G4 z2 .^D2 | B3 c ^e!p!^d cB | %38
!ped! ^A2 G2 z ^E .^DC | ^A4- AG F^E | c4 z!f! c B^A | (^d3 .^D) G3!mf! F |!>(! F4!>)! ^E2 z!p! C | %43
 =A2 z .B !>!d3/2 | =G4 | .B3 c e x3 | .B2 | d3!ped! d c3 c |!f! (f4 F) z cB/A/ | %49
!p! ^G4 z3/2 ^D/ F z/ ^E/ | C4 !fermata!z!p! C FG | A4 z G F>C | D4 z D!<(! G!<)!A | B2 z A G3 D | %54
 F2 E2 z E ^AB | c4- cB!mf! ^AF | =G4 z D GB | !^!d2 !^!c2 B3 !^!A | %58
 !^!A2!ped! G2 z!f! G!ped! ^B^d | !^!f4- f=B .!^!c!^!d | c2 z F !^!G3 F |!ped! !^!A6 ^B,2 | C4 | %63
 z4 | c8 | c2 z c c3 c |!f! (e8 | e) | (d8 | F2) z F G3 F |!ped! A4 z2 z ^A | B4 z2 z ^B | c8- | %73
 c2 z!ff! c (!fermata!g3 c) |!ped! f8 | z8 | z8 | z8 | z8 |] %79
V:2
 z2 z [FA]2 [FA]2 ([FA] | [GB]) [^Ec]2 !^![EG]2 !^![EA]2 [E=B]- | [EB] [FA]2 !^![Ff-] f^efg | %3
 g !^![Aa]2 !^![Ff-] f^efg- | g !^![Aa]2 !^![Ff-] fgab | [cc']2 z2 [^B,^D]2 z2 d8 | %6
!f! [A^ce]4- [Ace] z z2 | z C3 C z z2 | z D2 E D z!ped! z2 | z D2 E D z z2 | z E2 F E z z2 | %11
 z =G2 A G z z2 | z =G2 A G z z2 | z =G2 A G z z2 | z ^G2 A G z z2 | %15
 z [A,FA][A,FA][A,FA] z [B,FB][B,FB][B,FB] | z [CFc][CFc][CFc] z [DFd][DFd][DFd] | %17
 z [G,CFG][G,CFG][G,CFG] z [G,^B,FG][G,B,FG][G,B,FG] |!p! c/C/ x3 c/C/ x3 | c/D/ x3 c/^D/ x3 | %20
 c/E/ c/^E/ x6 | c/F/!ped! x3 c/!ped!=G/ x3 |!f! [f^ae']!p! [EF^A]3!<(! !fermata!C3 [EFA]/!<)!C/ | %23
 [EF^A]/ x/ |!f! [dfgd']!p! ([FG]3 D3) [FG]/D/ | [FG]/D/ x3 [FG]/D/ x3 | %26
 z [A,EA][A,EA][A,EA] z [CG^A][CGA][CGA] | z [B,FB][B,FB][B,FB] z [^DA^B][DAB][DAB] | %28
 z [FAc][FAc][FAd] z [=G_Bd][GBd][GB_e] | z [^GB^d][GBd][GB=e] z [GBe][GBe][GB^e] | %30
!ff! [FAf]2 z [FA]2 [FA]2 ([FA] | B)!ped! c2 [^EG]2 [EA]2 [E=B]- | %32
 [EB] [FA]2 [Ff]- [Ff][Gg][Aa][Bb] | [cfc']2 z2!p! [^B,^D]2 z2 d8 | [A^ce]4 z4 | %35
 z [F,^A,][A,C][CF] [F^A]!ped! z z2!ped! | z [G,B,][B,^D][DG] [GB] z z2 | %37
 z [G,B,][B,^D][DG] [GB] z z2 | z [G,C][C^E][EG] [Gc] z z2 | z!<(! ^A,[A,C]([CF]!<)! [D^E]4) | %40
 z!<(! ^A,[A,C][CF]!<)! [E^^F]4 | z [G,B,][B,^D][DG] z G,[G,B,][G,B,F] | %42
 z [G,B,][B,=D][DF] [G,B,^E]2 z2 |!pp! A/F/ x3 A/ x | z x3 | [=gb]2 z2 z4 | [^Ac] x | %47
 !>![fd'] [DFd][DFd] z z [CFc][CFc] z |!f! [Acf]/F/[Acf] x3 z z2 | z2 [^EGc]2 [^DG^B]2 z2 | %50
 z2 [Cc]2 !fermata!z4 | z C2 D x4 | z D2 E x4 | z D2 E x4 | z E2 F x4 | z =G2 A x4 | z =G2 A x4 | %57
 !^![Bd]2 !^![Ac]2 !^![=GB]2 !^![FA]2 | z ^G2 A x4 | %59
 z!<(! [A,FA][A,FA][A,FA] z [B,FB][B,FB][B,FB] | z [CFc][CFc][CFc] z [DFd][DFd][DFd] | %61
 z!ped! [CFA][CFA][CFA] z [^B,FA][B,FA]!<)![B,FA] |!pp!!<(! Cc !>!C x | !>!Dc !>!^D x | %64
 !>!Ec !>!^Ec x4 | !>!Fc x2 !>!=Gc x2 | [F^Aef] (([Ae]3 F3)) [Ae]/!<)!F/ | [^Ae]/ x/ | %68
!f! !arpeggio![dfgd']!p! [FGd]3!<(! D3 [FGd]/D/ | [FGd]/D/ x3 [FGd]/!<)!D/ x3 | %70
 z [A,EA][A,EA][A,EA] z [CG^A][CGA][CGA] | z [B,FB][B,FB][B,FB] z [^DA^B][DAB][DAB] | %72
 z [FAc][FAc][FAd] z [=G_Bd][GBd][GB_e] | z [^GB^d][GBd][GB=e] [GB^e]2 !fermata!z2 | %74
 z2 z [FA]2 [FA]2 [FA] | [GB] [^Ec]2 [EG]2 [EA]2 [E=B]- | %76
 [EB] [FA]2!ped! [Ff]- [Ff]!ped![Gg][Aa][Bb] | [cc']2 z2 [^EGc^e]2 z2 | [FAcf]4 z4 |] %79
V:3
 x3 f edc^B | x8 | x8 | x8 | x8 | x16 | x8 | x A,2- D A, x3 | x A,3- A, x3 | x B,3- B, x3 | %10
 x [^A,-C]3 [A,C] x3 | x [C-E]3 [CE] x3 | x [B,-D]3 [B,D] x3 | x d3- d x3 | x ^d3- d x3 | x8 | x8 | %17
 x8 | x8 | x8 | x8 | x8 | x8 | x | x8 | x8 | x8 | x8 | x8 | x8 | x3 f edc^B | G3 x5 | x8 | x16 | %34
 x8 | x8 | x8 | x8 | x8 | x8 | x8 | x8 | x8 | x11/2 | x4 | x8 | x2 | x8 | x8 | x8 | x8 | %51
 x A,3- [A,C] .[A,C]2 .[A,C] | x A,3- [A,D] .[A,D]2 .[A,D] | x B,3- [B,D] [B,D]2 [B,D] | %54
 x ^A,3- [A,E] .[A,E]2 [A,E] | x C3- [C=G] .[CG]2 .[CG] | x B,3- [B,=G] [B,G]2 .[GB] | x8 | %58
 x ^D3- [DG] [DG]2 [DG] | x8 | x8 | x8 | x4 | x4 | x8 | x8 | x8 | x | x8 | x8 | x8 | x8 | x8 | x8 | %74
 x3 f edc^B | x8 | x8 | x8 | x8 |] %79
V:4
!f! F,[A,C]C,[A,C] F,[A,C]C,[A,C] | ^E,[=B,C]C,[B,C] E,[B,C]C,[B,C] | %2
 F,[A,C]C,[A,C] =E,[F,A,]E,[F,A,] | ^D,[F,A,]D,[F,A,] =D,[F,A,]D,[F,A,] | %4
 C,[F,A,]C,[F,A,] B,,[F,G,D]B,,[F,G,D] | [A,,F,]2 z2 [G,,F,]2 z2 x8 | [C,,G,,]4- [C,,G,,] z z2 | %7
 z C,2 D, C, z z2 | z D,2 E, D, z z2 | z D,2 E, D, z z2 | z E,2 F, E, z z2 | z =G,2 A, G, z z2 | %12
 z =G,2 A, G, z z2 | z B,2 C B, x3 | z ^B,2- C B, z z2 | !>!F,,4 !>!G,,4 | !>!A,,4 !>!B,,4 | %17
 C,4 D,4 | C,2 z2 ^E,/C,/ x3 | F,/C,/ x3 ^^F,/C,/ x3 | G,/C,/ ^^G,/C,/ x6 | ^A,/C,/ x3 B,/C,/ x3 | %22
 !turn![F,,,F,,] F,,3 F,3 F,,/F,/ | F,,/ x/ | B,,, [B,,G,]3 B,3!f! [B,,G,]/B,/ | %25
 [B,,G,]/B,/ x3 [B,,G,]/B,/ x3 | [C,,C,]4 !>!E,4 | [C,,^D,]4 !>!F,4 | %28
!f! [C,,C,] [F,A,C][F,A,C][F,A,D] z [=G,_B,D][G,B,D][G,B,_E] | %29
 z [^G,B,^D][G,B,D][G,B,=E] z [G,B,E][G,B,E][G,B,^E] | F,[A,C]C,[F,A,] A,,[C,F,]F,,[F,A,] | %31
 ^E,[=B,C]C,[B,C]!p! E,[B,C]C,[B,C] | F,[A,C]C,[A,C] B,,[G,D]F,[G,D] | [A,,F,]2 z2 [G,,F,]2 z2 x8 | %34
 [C,,G,,]4 z4 |!p! F,,C,F,^A, C z z2 | F,,^D,G,B, ^D z z2 | F,,^D,G,B,!f! ^D z z2 | %38
 F,,^E,G,C ^E z z2 |!p! F,,C,F,^A, B,4 | F,,C,F,^A, C4 | B,,4 =D,4 | C,4- C,2 z2 | F,/C/ x3 F,/ x | %44
!p! B,/ x7/2 |!f! [E,=G,B,]/D/ x3 [E,G,B,]/ x7/2 | [E,F,^A,]/ x3/2 | %47
 [B,,,B,,] z z [B,,B,] [A,,A,]2 z [A,,A,] | [^D,,^D,]4- [D,,D,] z z2 | z2 [G,,G,]2 [G,,G,]2 z2 | %50
 z2 [C,,C,]2 !fermata!z4 | F,, .[C,F,]2 .[C,F,] F,, .[C,F,]2 [C,F,] | %52
 F,, [D,F,]2 [D,F,] F,, [D,F,]2 [D,F,] | F,, [D,F,]2 [D,F,] F,, [D,F,]2 [D,F,] | %54
 F,, [C,F,]2 [C,F,] F,, [C,F,]2 [C,F,] | F,, [E,^A,]2 [E,A,] F,,!f! [E,A,]2 [E,A,] | %56
 F,, [D,=G,]2 [D,G,] F,, [D,G,]2 [D,G,] | F,, [D,=G,B,]2 [D,G,B,] F,, [D,G,B,]2 [D,G,B,] | %58
 F,, [^D,G,^B,]2 [D,G,B,] F,, [D,G,B,]2 [D,G,B,] | [F,,,F,,]4 [G,,,G,,]4 | [A,,,A,,]4 [B,,,B,,]4 | %61
 [C,,C,]4 [^D,,^D,]4 | [C,,C,]4 | !>!F,C, !>!^^F, x | !>!G,C, !>!^^G,C, x4 | %65
 !>!^A,C, x2 !>!B,C, x2 | F,, F,3 C3 F,/C/ | F,/ x/ | B,,, (([B,,G,]3 B,3)) [B,,G,]/B,/ | %69
 [B,,G,]/B,/ x3 [B,,G,]/B,/ x3 | [C,,C,]4!ff! !>!E,4 | !^![C,,^D,]4 !>!F,4 | %72
!f! C,, [F,A,C][F,A,C][F,A,D] z [=G,_B,D][G,B,D][G,B,_E] | %73
 z [^G,B,^D][G,B,D][G,B,=E] [C,,C,]2 !fermata!z2 |!ff! F,[A,C]C,[A,C] F,[A,C]C,[A,C] | %75
 ^E,[B,C]C,[B,C] E,[B,C]C,[B,C] | F,[A,C]C,[A,C] B,,[G,D]F,[G,D] | [C,F,A,C]2 z2 [C,,C,]2 z2 | %78
 [F,,,F,,]4 z4 |] %79
V:5
 F,2 C,2 F,2 C,2 | ^E,2 C,2 E,2 C,2 | F,2 C,2 !>!=E,2 E,2 | !>!^D,2 D,2 !>!=D,2 D,2 | %4
 !>!C,2 C,2 !>!B,,2 B,,2 | x16 | x8 | x F,,3- F,, x3 | x F,,3- F,, x3 | x F,,3- F,, x3 | %10
 x F,,3- F,, x3 | x F,,3- F,, x3 | x F,,3- F,, x3 | x F,,3- F,, z z2 | x8 | x8 | x8 | x8 | x8 | %19
 x8 | x8 | x8 | x8 | x | x8 | x8 | x8 | x8 | x8 | x8 | F,2 C,2 A,,2 F,,2 | ^E,2 C,2 E,2 C,2 | %32
 F,2 C,2 B,,2 F,2 | x16 | x8 | x8 | x8 | x8 | x8 | x8 | x8 | x8 | x8 | x11/2 | x4 | x8 | x2 | x8 | %48
 x8 | x8 | x8 | x8 | x8 | x8 | x8 | x8 | x8 | x8 | x8 | x8 | x8 | x8 | x4 | x4 | x8 | x8 | x8 | x | %68
 x8 | x8 | x8 | x8 | x8 | x8 | F,2 C,2 F,2 C,2 | ^E,2 C,2 E,2 C,2 | F,2 C,2 B,,2 F,2 | x8 | x8 |] %79

